X:2
T:Donegal Highland
Z: id:dc-miscellaneous-1
M:C|
L:1/8
K:G Major
dc|BEBE cBcA|BEBE cAFA|BEBE cBcB|Addc BGGA|!
BEBE cBcA|BEBE cAFA|BEBE cBcB|Addc BG|]!
Bd|g2fg B3A|G2ag fdef|g2fg B3A|GBdc BGBd|!
g2fg B3A|G2ag fdcA|GBdB cdef|gbaf g2|]!

